elusive/network.svg

<?xml version="1.0" encoding="UTF-8" standalone="no"?>
<!-- Generator: IcoMoon.io -->

<svg
   xmlns:dc="http://purl.org/dc/elements/1.1/"
   xmlns:cc="http://creativecommons.org/ns#"
   xmlns:rdf="http://www.w3.org/1999/02/22-rdf-syntax-ns#"
   xmlns:svg="http://www.w3.org/2000/svg"
   xmlns="http://www.w3.org/2000/svg"
   xmlns:sodipodi="http://sodipodi.sourceforge.net/DTD/sodipodi-0.dtd"
   xmlns:inkscape="http://www.inkscape.org/namespaces/inkscape"
   id="svg2"
   version="1.1"
   data-tags="remove-circle, cancel, close, remove, delete"
   height="1200"
   width="1200"
   data-du=""
   viewBox="0 0 1200 1200"
   inkscape:version="0.48.4 r9939"
   sodipodi:docname="network.svg">
  <defs
     id="defs32">
    <pattern
       id="pattern13199"
       width="811.3138"
       patternUnits="userSpaceOnUse"
       patternTransform="translate(-1692.9959,113.8855)"
       height="483.7205">
      <path
         id="path13201"
         filter="url(#filter3767)"
         d="M241.8603,83.1823H569.4535A158.678,158.678 0 0 1 728.1315,241.8603V241.8603A158.678,158.678 0 0 1 569.4535,400.5382H241.8603A158.678,158.678 0 0 1 83.1823,241.8603V241.8603A158.678,158.678 0 0 1 241.8603,83.1823" />
    </pattern>
    <mask
       id="mask13195"
       maskUnits="userSpaceOnUse">
      <path
         id="path13197"
         d="m -957.1864,582.2458 40.9492,-299.4407 -144.6017,-8.9576 -10.2373,67.822 -12.7966,11.5169 -8.9576,216.2627 -65.2627,-21.7542 14.0763,-270.0085 -74.2204,-6.3983 -11.5169,28.1525 -14.0763,225.2203 -42.2288,-8.9576 2.5593,-250.8136 -6.3983,0 -7.678,-70.3814 -33.2712,1.2797 -1.2796,29.4322 -7.678,17.9153 -2.5593,189.3898 -26.8729,33.2712 2.5593,88.2966 40.9492,19.1949 34.5508,-46.0678 284.0848,76.7797 49.9068,-21.7542"
         inkscape:connector-curvature="0"
         style="fill:#ffffff;stroke:#000000" />
    </mask>
    <filter
       id="filter13191"
       y="-0.26210001"
       x="-0.12899999"
       width="1.2579"
       height="1.5242"
       color-interpolation-filters="sRGB">
      <feGaussianBlur
         id="feGaussianBlur13193"
         stdDeviation="34.659" />
    </filter>
    <inkscape:path-effect
       id="path-effect13189" />
  </defs>
  <sodipodi:namedview
     pagecolor="#ffffff"
     bordercolor="#666666"
     borderopacity="1"
     objecttolerance="10"
     gridtolerance="10"
     guidetolerance="10"
     inkscape:pageopacity="0"
     inkscape:pageshadow="2"
     inkscape:window-width="1535"
     inkscape:window-height="876"
     id="namedview30"
     showgrid="false"
     inkscape:zoom="0.37249375"
     inkscape:cx="813.49423"
     inkscape:cy="510.73177"
     inkscape:window-x="65"
     inkscape:window-y="24"
     inkscape:window-maximized="1"
     inkscape:current-layer="svg2" />
  <metadata
     id="metadata62">
    <rdf:RDF>
      <cc:Work
         rdf:about="">
        <dc:format>image/svg+xml</dc:format>
        <dc:type
           rdf:resource="http://purl.org/dc/dcmitype/StillImage" />
        <dc:title />
      </cc:Work>
    </rdf:RDF>
  </metadata>
  <path
     style="fill:currentColor"
     inkscape:connector-curvature="0"
     d="M 1.4218442,630.36478 C -0.39991226,620.37829 0.0489024,611.89775 0.0489024,601.50683 l 0,-2.74839 C 163.3709,584.74804 341.28974,543.60746 473.71381,448.9719 c 37.99617,17.4089 75.36351,15.03389 111.20828,-2.74839 75.10266,75.85522 148.80588,128.57404 247.12951,159.40588 10.0678,25.65199 26.08589,45.34822 48.05296,59.0901 -26.54308,65.96106 -63.6125,124.13458 -111.20827,174.52196 C 698.55115,788.5677 605.66464,825.26127 573.93856,898.33155 353.9278,895.94816 132.17917,799.69052 1.4218442,630.36478 z M 572.56561,984.90542 C 460.25226,1042.9102 341.70903,1074.1826 221.09252,1067.3568 127.79605,989.07217 60.567351,886.73985 26.134796,780.15133 177.65705,910.38071 379.04659,984.70013 572.56561,984.90542 z M 821.06807,968.41517 C 948.87536,941.75563 1066.3128,890.36538 1161.5576,811.75767 1036.5455,1137.6948 660.07912,1286.6979 351.52199,1148.434 c 100.16215,-14.4317 194.25095,-49.0271 274.58836,-94.8191 80.28427,46.0067 175.83072,-2.3872 194.95772,-85.19973 z m 236.14603,-335.302 c 49.1957,-3.63033 97.1666,-7.25051 142.7859,-15.11609 -0.089,12.28361 -1.3574,24.37399 -1.3729,35.72891 -85.771,109.76551 -214.6967,184.76034 -343.23548,219.87017 47.96495,-58.23495 83.54515,-122.92309 108.46239,-188.26384 39.17459,-5.08257 71.17279,-23.0777 93.36009,-52.21915 z m 21.967,-87.94808 c -5.4155,-40.73397 -25.79,-73.79598 -57.6635,-94.81901 10.0721,-93.26934 11.733,-184.2758 4.1188,-272.08933 96.157,99.2641 154.3829,225.96402 170.2448,351.79227 -34.7821,7.32855 -73.6817,12.3677 -116.7001,15.11607 z M 410.5585,387.13341 C 289.27501,463.5497 147.26258,500.67052 6.9136112,512.18457 41.963442,293.14317 191.15923,112.11129 391.33731,38.089531 c 5.43671,71.134319 21.90967,139.809649 48.05296,199.257339 -41.97221,42.62169 -51.94045,97.2645 -28.83177,149.78654 z M 646.70447,285.44347 C 709.91924,206.95462 762.47381,126.74818 792.2363,32.592779 c 51.25603,17.406846 97.47886,39.851462 138.66712,67.335237 14.38581,113.182684 16.38551,225.916044 5.49175,331.179424 -49.72793,8.48809 -88.8241,38.74512 -105.7165,82.45131 -73.41586,-26.57762 -133.51351,-76.06916 -186.72008,-129.17372 13.36312,-34.47811 13.8674,-66.79463 2.74588,-98.94156 z M 519.02089,204.36634 C 493.47689,141.2177 476.80402,80.02577 476.45969,13.35414 553.059,-4.2683172 635.7558,-3.6816732 708.48685,10.605756 680.70112,88.391842 636.80007,160.48644 590.41386,219.48241 574.09205,212.51073 534.33811,196.98282 519.02089,204.36634 z"
     id="path14894" />
</svg>

<?xml version="1.0" encoding="utf-8"?>
<!-- Generator: Adobe Illustrator 13.0.0, SVG Export Plug-In . SVG Version: 6.00 Build 14948)  -->
<!DOCTYPE svg PUBLIC "-//W3C//DTD SVG 1.1//EN" "http://www.w3.org/Graphics/SVG/1.1/DTD/svg11.dtd">
<svg version="1.1"
	 id="svg2" inkscape:version="0.48.4 r9939" sodipodi:docname="network.svg" xmlns:dc="http://purl.org/dc/elements/1.1/" xmlns:cc="http://creativecommons.org/ns#" xmlns:rdf="http://www.w3.org/1999/02/22-rdf-syntax-ns#" xmlns:svg="http://www.w3.org/2000/svg" xmlns:sodipodi="http://sodipodi.sourceforge.net/DTD/sodipodi-0.dtd" xmlns:inkscape="http://www.inkscape.org/namespaces/inkscape"
	 xmlns="http://www.w3.org/2000/svg" xmlns:xlink="http://www.w3.org/1999/xlink" x="0px" y="0px" width="1200px" height="1200px"
	 viewBox="0 0 1200 1200" enable-background="new 0 0 1200 1200" xml:space="preserve">
<path id="path14894" inkscape:connector-curvature="0" d="M1.422,630.365c-1.822-9.987-1.373-18.468-1.373-28.858v-2.748
	c163.322-14.011,341.241-55.151,473.665-149.787c37.996,17.409,75.363,15.034,111.208-2.748
	c75.103,75.855,148.807,128.574,247.13,159.405c10.067,25.652,26.086,45.349,48.053,59.091
	c-26.543,65.961-63.612,124.135-111.208,174.521c-70.346-50.674-163.231-13.979-194.958,59.091
	C353.928,895.948,132.179,799.69,1.422,630.365z M572.565,984.905c-112.313,58.005-230.856,89.277-351.473,82.451
	C127.796,989.072,60.567,886.74,26.135,780.151C177.657,910.381,379.047,984.7,572.565,984.905z M821.068,968.415
	c127.807-26.659,245.244-78.05,340.489-156.657c-125.012,325.938-501.479,474.94-810.035,336.676
	c100.162-14.432,194.251-49.026,274.588-94.818C706.395,1099.621,801.941,1051.228,821.068,968.415z M1057.214,633.113
	c49.196-3.631,97.167-7.251,142.786-15.116c-0.089,12.283-1.357,24.374-1.373,35.729
	c-85.771,109.766-214.696,184.761-343.235,219.87c47.965-58.234,83.545-122.923,108.462-188.264
	C1003.028,680.25,1035.027,662.255,1057.214,633.113L1057.214,633.113z M1079.182,545.165
	c-5.416-40.734-25.791-73.796-57.664-94.819c10.072-93.269,11.733-184.275,4.119-272.089
	c96.156,99.264,154.383,225.964,170.244,351.792C1161.1,537.378,1122.199,542.417,1079.182,545.165L1079.182,545.165z
	 M410.559,387.133C289.275,463.55,147.263,500.671,6.914,512.185c35.05-219.042,184.246-400.073,384.423-474.095
	c5.438,71.134,21.91,139.81,48.054,199.257C397.418,279.969,387.45,334.611,410.559,387.133z M646.704,285.443
	c63.215-78.489,115.77-158.695,145.532-252.851C843.492,50,889.715,72.444,930.903,99.928
	c14.386,113.183,16.386,225.917,5.492,331.18c-49.729,8.488-88.824,38.745-105.717,82.451
	c-73.416-26.577-133.514-76.069-186.72-129.174C657.321,349.907,657.826,317.59,646.704,285.443L646.704,285.443z M519.021,204.366
	c-25.544-63.148-42.217-124.34-42.561-191.012c76.599-17.623,159.296-17.036,232.027-2.748
	c-27.786,77.786-71.688,149.88-118.073,208.876C574.092,212.511,534.338,196.983,519.021,204.366z"/>
</svg>
